!!!!SEGMENT: pl-kk--kk-i-6--008_anonim--kyrie.krn
!!!cenid: 16xx:963
!!!COM: Anonim
!!!COM-rismid: pe30004985
!!!CDT:
!!!CNT:
!!!OTL: Kyrie
!!!PDT:
!!!AGN: Sacred
!!!SMS-siglum: PL-Kk
!!!SMS-shelfmark: Kk.I.6
!!!SMS-shelfwork: 008 W
!!!SMS-variant:
!!!SMS-altvar:
!!!NIFC-rismid: 1001135601
!!!URL-scan: http://repozytorium.nifc.pl/skany/pl-kk-nut--i-6
!!!ONB-nifc: UWAGA: C (skan 0006, s. 9), T (skan 104-105, s. 13-14), B (skan 0216, s. 12-13) Następny utwór: Et in terra
!!!key:
**kern	**text	**kern	**text	**kern	**text
*part3	*part3	*part2	*part2	*part1	*part1
*staff3	*staff3	*staff2	*staff2	*staff1	*staff1
*group1	*	*group1	*	*group1	*
*Iempty	*	*Itenor	*	*Ivox	*
*I"Baſsus.	*	*I"Tenor.	*	*I"Cantus.	*
*I'B	*	*I'T	*	*I'S	*
*clefF4	*	*clefC4	*	*clefC4	*
*k[b-]	*	*k[b-]	*	*k[b-]	*
*B-:	*	*B-:	*	*B-:	*
*M2/1	*	*M2/1	*	*M2/1	*
*met(C|)	*	*met(C|)	*	*met(C|)	*
=1-	=1-	=1-	=1-	=1-	=1-
1r	.	1.A	Ky-	1F	Ky-
1F	Ky-	.	.	1D	-ri-
*	*	*2\right	*	*	*
.	.	2B-\	-ri-	.	.
=2-	=2-	=2-	=2-	=2-	=2-
*	*	*	*	*lig	*
2D/	-ri-	2.A/	-e	1F	-e
1F	-e	.	.	.	.
.	.	4B-\	.	.	.
.	.	2c\	.	1G	.
2E\	.	2C/	.	.	.
*	*	*	*	*Xlig	*
=3-	=3-	=3-	=3-	=3-	=3-
*	*	*	*	*lig	*
2D/	.	2D/	.	1A	.
2C/	e-	2E/	e-	.	.
1BB-	-ley-	0F	-ley-	1B-	.
*	*	*	*	*Xlig	*
=4-	=4-	=4-	=4-	=4-	=4-
*	*	*	*	*lig	*
1FF	-ſon	.	.	1A	.
2rBB	.	2C,</	-ſon	1G	.
*	*ij	*	*ij	*	*
2C/	Ky-	2c\	Ky-	.	.
*	*	*	*	*Xlig	*
=5-	=5-	=5-	=5-	=5-	=5-
2D/	-ri-	2A/	-ri-	1F	e-
1F	-e	2A/	-e	.	.
*	*	*	*	*lig	*
.	.	1d	e-	1D	-ley-
!LO:TX:t=P:problem=4\left or middle&colon; global	!	!	!	!	!
4E\	.	.	.	.	.
4D\	.	.	.	.	.
=6-	=6-	=6-	=6-	=6-	=6-
1C	e-	2G/	.	1E	.
.	.	2.A/	.	.	.
*lig	*	*	*	*Xlig	*
1FF	-ley-	.	.	[1Fl;;	-son
.	.	4B-\	.	.	.
.	.	2c\	.	.	.
=7-	=7-	=7-	=7-	=7-	=7-
1BB-	.	1B-	-ley-	0F]	.
*Xlig	*	*	*	*	*
1FFl;;	-ſon	1Al;;	-ſon	.	.
*	*Xij	*	*Xij	*	*
!LO:LB:g=original	!	!LO:LB:g=original	!	!LO:LB:g=original	!
=8||-	=8||-	=8||-	=8||-	=8||-	=8||-
*M2/1	*	*M2/1	*	*M2/1	*
*met(C|)	*	*met(C|)	*	*met(C|)	*
*	*	*	*	*lig	*
2rF	.	2.c\	Chri-	1F	Chri-
1F	Chri-	.	.	.	.
.	.	4B-\	.	.	.
.	.	2A/	-ste	1c	.
*2\right	*	*	*	*	*
2E\	.	2G/	.	.	.
*	*	*	*	*Xlig	*
=9-	=9-	=9-	=9-	=9-	=9-
2F\	-ste	2A/	.	1c	-ſte
2A\	.	2F/	.	.	.
1G	e-	2G/	.	1B-	.
.	.	2B-\	.	.	.
=10-	=10-	=10-	=10-	=10-	=10-
2.F\	.	4c\	.	1A	.
.	.	4B-\	.	.	.
.	.	4A/	.	.	.
4E\	.	4G/	.	.	.
4D/	.	1F	.	1B-	.
4C/	.	.	.	.	.
2D/	.	.	.	.	.
=11-	=11-	=11-	=11-	=11-	=11-
1C	.	2.G/	.	1c	.
.	.	4A/	.	.	.
1BB-	-ley-	2B-\	.	1d	.
.	.	2A/	.	.	.
=12-	=12-	=12-	=12-	=12-	=12-
1C	-son	1G	.	1c	.
2rBB	.	1.F	.	1A	.
*	*ij	*	*	*	*
2FF/	Chri-	.	.	.	.
=13-	=13-	=13-	=13-	=13-	=13-
*	*	*	*	*lig	*
2BB-/	.	.	.	1B-	.
2GG/	-ste	2.G/	.	.	.
2AA/	e-	.	.	1A	.
.	.	4F/	.	.	.
2FF/	.	1F/	.	.	.
*	*	*	*	*Xlig	*
=14-	=14-	=14-	=14-	=14-	=14-
*	*	*	*	*lig	*
1C	.	.	.	1G	e-
.	.	2E/	.	.	.
1D	.	2F/	.	1F	.
.	.	2A/	e-	.	.
*	*	*	*	*Xlig	*
=15-	=15-	=15-	=15-	=15-	=15-
*	*	*	*	*lig	*
1BB-	.	1B-	-ley-	1D	-ley-
1C	-ley-	1G	.	1E	.
*	*	*	*	*Xlig	*
=16-	=16-	=16-	=16-	=16-	=16-
0FFl;;	-son	0Al;;	-son	0Fl;;	-son
*	*Xij	*	*	*	*
!LO:PB:g=original	!	!LO:LB:g=original	!	!LO:LB:g=original	!
=17||-	=17||-	=17||-	=17||-	=17||-	=17||-
*M2/1	*	*M2/1	*	*M2/1	*
*met(C|)	*	*met(C|)	*	*met(C|)	*
*	*	*	*	*lig	*
1r	.	1rA	.	1F	Ky-
2r	.	2.F/	Ky-	1c	.
1F\	Ky-	.	.	.	.
.	.	4G/	.	.	.
*	*	*	*	*Xlig	*
=18-	=18-	=18-	=18-	=18-	=18-
.	.	4A/	-ri-	1c	-ri-
.	.	4B-\	.	.	.
2E\	-ri-	1c	-e	.	.
*	*	*	*	*lig	*
2.D\	-e	.	.	1d	-e
.	.	2B-\	.	.	.
4E\	.	.	.	.	.
=19-	=19-	=19-	=19-	=19-	=19-
2F\	.	2A/	.	1c	.
2E\	.	2G/	.	.	.
*	*	*	*	*Xlig	*
1D	.	1F	.	1f	.
=20-	=20-	=20-	=20-	=20-	=20-
1C	e-	2G/	.	1e	.
.	.	1A	e-	.	.
1D	-ley-	.	.	1d	.
.	.	4G/	-ley-	.	.
.	.	4F/	.	.	.
=21-	=21-	=21-	=21-	=21-	=21-
!LO:TX:t=P:global:problem=rozdzielacz słów	!	!	!	!	!
2AA,</	-ſon	1A	-son	1c	.
*	*ij	*	*	*	*
1A	Ky-	.	.	.	.
*	*	*	*ij	*lig	*
.	.	2r	.	1B-	.
2G\	-ri-	2B-\	Ky-	.	.
=22-	=22-	=22-	=22-	=22-	=22-
2F\	-e	2A/	-ri-	1c	.
!LO:SIC:v:t=custos D	!	!	!	!	!
2E\	e-	2G/	-e	.	.
*	*	*	*	*Xlig	*
!LO:LB:g=original	!	!	!	!	!
2.D/	-ley-	1A	ley-	1d	.
4E\	.	.	.	.	.
=23-	=23-	=23-	=23-	=23-	=23-
*	*	*	*	*lig	*
2F\	-son	1A	-son	1c	.
*	*	*	*Xij	*	*
2FF/	Ky-	.	.	.	.
2FF/	-ri-	2rF	.	1A	.
2FF/	-e	2F/	ky-	.	.
*	*	*	*	*Xlig	*
=24-	=24-	=24-	=24-	=24-	=24-
1BB-	ley-	2F/	-ri-	1B-	.
!	!	!LO:SIC:v:t=custos F	!	!	!
.	.	2F/	-e	.	.
!	!	!LO:LB:g=original	!	!	!
1FF	-ſon	1F	ley-	1A	.
=25-	=25-	=25-	=25-	=25-	=25-
2rBB	.	2C/	-son	1G	.
*	*	*	*ij	*	*
2C/	Ky-	2c\	ky-	.	.
2D/	-ri-	2A/	-ri-	1F	e-
2.BB-/	-e	2.B-\	-e	.	.
=26-	=26-	=26-	=26-	=26-	=26-
.	.	.	.	1D	-ley-
4C/	.	4A/	.	.	.
2D/	e-	4G/	.	.	.
.	.	4F/	e-	.	.
1C	-ley-	1G	-ley-	1E	.
=27-	=27-	=27-	=27-	=27-	=27-
!	!	!	!	!LO:TX:t=P:problem=fermata bez kropki above/below	!
2FF/	-son	2A/	-son	[0Fl;;	-son
2.BB-/	Ky-	1B-	ky-	.	.
4C/	-ri-	.	.	.	.
2D/	-e	2A/	-ri-	.	.
=28-	=28-	=28-	=28-	=28-	=28-
2BB-/	e-	2B-\	-e	0F_	.
2.D/	-ley-	4A/	.	.	.
.	.	4G/	.	.	.
.	.	2.A/	.	.	.
4E\	.	.	.	.	.
2F\	-son	.	.	.	.
.	.	4B-\	.	.	.
=29-	=29-	=29-	=29-	=29-	=29-
1FF	e-	2c\	.	0F_	.
.	.	2A/	e-	.	.
1BB-	-ley-	1B-	-ley-	.	.
=30-	=30-	=30-	=30-	=30-	=30-
!	!	!LO:TX:b:t=Ultimum.	!	!	!
0FFl;;	-ſon	0Al;;	-son	0F]	.
*	*Xij	*	*Xij	*	*
!LO:LB:g=original	!	!LO:PB:g=original	!	!LO:LB:g=original	!
=31||-	=31||-	=31||-	=31||-	=31||-	=31||-
*M2/1	*	*M2/1	*	*M2/1	*
*met(C|)	*	*met(C|)	*	*met(C|)	*
*	*	*	*	*lig	*
1r	.	2rc	.	1F	Ky-
.	.	1f	Ky-	.	.
1C	Ky-	.	.	1c	.
.	.	2e\	-ri-	.	.
*	*	*	*	*Xlig	*
=32-	=32-	=32-	=32-	=32-	=32-
*2\left	*	*	*	*	*
2.F\	-ri-	2f\	-e	1c	-ri-
.	.	2F/	.	.	.
4E\	.	.	.	.	.
*	*	*	*	*lig	*
2D/	-e	2A/	.	1d	-e
2BB-/	[e-	2B-\	.	.	.
=33-	=33-	=33-	=33-	=33-	=33-
1C	-ley-	1G	.	1c	.
*	*	*	*	*Xlig	*
4D/	.	4F/	e-	1f	.
4E\	.	4G/	.	.	.
4F\	.	4A/	.	.	.
4G\	.	4B-\	.	.	.
=34-	=34-	=34-	=34-	=34-	=34-
4A\	.	1c	-ley-	1e	.
4B-\	.	.	.	.	.
1c	.	.	.	.	.
.	.	1G	-ſon	1d	.
*2\right	*	*	*	*	*
2B-\	.	.	.	.	.
=35-	=35-	=35-	=35-	=35-	=35-
2A\	.	2r	.	1c	.
*	*	*	*ij	*	*
2F\	son]	2A/	Ky-	.	.
*	*ij	*	*	*lig	*
!LO:SIC:v:t=custos F	!	!	!	!	!
1G	Ky-	2B-\	-ri-	1B-	.
.	.	2G/	-e	.	.
!LO:LB:g=original	!	!	!	!	!
=36-	=36-	=36-	=36-	=36-	=36-
2.F\	-ri-	1.A	e-	1c	.
4E\	.	.	.	.	.
*	*	*	*	*Xlig	*
2D/	-e	.	.	1d	.
!	!	!LO:SIC:v:t=custos G	!	!	!
2BB-/	e-	2B-\	-ley-	.	.
!	!	!LO:LB:g=original	!	!	!
=37-	=37-	=37-	=37-	=37-	=37-
1C	-ley-	1G	-son	1c	.
2D/	.	2.F/	Ky-	1A	.
1F\	.	.	.	.	.
.	.	4G/	-ri-	.	.
=38-	=38-	=38-	=38-	=38-	=38-
.	.	2A/	-e	0c	.
4E\	.	4G/	.	.	.
4D/	.	4F/	.	.	.
2.C/	.	2.G/	.	.	.
4BB-/	.	4A/	.	.	.
=39-	=39-	=39-	=39-	=39-	=39-
*	*	*	*	*lig	*
4GG/	.	4B-\	.	1B-	.
4AA/	.	4A/	.	.	.
2BB-/	.	4F/	.	.	.
.	.	4G/	.	.	.
2FF/	-son	2A/	e-	1c	.
2FF/	e-	2A/	-ley-	.	.
*	*	*	*	*Xlig	*
=40-	=40-	=40-	=40-	=40-	=40-
!	!	!	!	!LO:SIC:v:t=custos c	!
1BB-	-ley-	1B-	-son	1d	.
!	!	!	!	!LO:LB:g=original	!
1FF	-son	2.A/	Ky-	1c	.
*	*Xij	*	*	*	*
.	.	4B-\	-ri-	.	.
=41-	=41-	=41-	=41-	=41-	=41-
*	*	*	*	*lig	*
2rBB	.	2c\	-e	1A	.
2F\	Ky-	1A	e-	.	.
2D\	-ri-	.	.	1B-	.
!LO:SIC:v:t=custos F	!	!	!	!	!
2E\	-e	2G/	-ley-	.	.
*	*	*	*	*Xlig	*
!LO:LB:g=original	!	!	!	!	!
=42-	=42-	=42-	=42-	=42-	=42-
*	*	*	*	*lig	*
2F\	.	2A/	.	1A	.
2D/	.	1F	-son	.	.
2BB-/	.	.	.	1G	.
!	!	!LO:SIC:v:t=custos F	!	!	!
2C/	.	2E/	e-	.	.
*	*	*	*	*Xlig	*
!	!	!LO:LB:g=original	!	!	!
=43-	=43-	=43-	=43-	=43-	=43-
2D/	e-	2F/	-ley-	1F	e-
1BB-	-ley-	2D/	.	.	.
.	.	2F/	-son	1D	-ley-
2FF/	-son	1.G/	Ky-	.	.
=44-	=44-	=44-	=44-	=44-	=44-
*	*ij	*	*	*	*
1C	Ky-	.	.	1E	.
2FF/	-ri-	2A/	-ri-	[1Fl;;	-son
1BB-/	-e	1B-\	-e	.	.
=45-	=45-	=45-	=45-	=45-	=45-
.	.	.	.	0F_	.
2C/	.	4A/	.	.	.
.	.	4G/	.	.	.
2D/	.	4F/	.	.	.
.	.	4D/	.	.	.
2BB-/	.	1d\	e-	.	.
=46-	=46-	=46-	=46-	=46-	=46-
2D/	e-	.	.	0F_	.
2BB-/	.	4c\	.	.	.
.	.	4B-\	.	.	.
2F\	-ley-	2A/	ley-	.	.
2BB-/	.	2B-\	.	.	.
=47-	=47-	=47-	=47-	=47-	=47-
0Fl;;	-son	0Al;;	-son	0F]	.
*	*Xij	*	*Xij	*	*
==	==	==	==	==	==
*-	*-	*-	*-	*-	*-
!!!system-decoration: [g1]
!!!RDF**kern: > = above
!!!RDF**kern: < = below
!!!RDF**kern: l = terminal long
!!!AIN: 1 empty 1 tenor 1 vox
!!!ENC: Andrzej Kubiczek
!!!END: 2021-03-21
!!!ENC: Andrzej Kubiczek
!!!END: 2021-03-07
